!!!COM: Beethoven, Ludwig van
!!!CDT: 1770///-1827///
!!!OTL: Piano Sonata no. 13 in E-flat major
!!!OTP: quasi una fantasia
!!!OPS: 27
!!!ONM: 1
!!!OMV: 3
!!!OMD: Adagio
**kern	**kern	**dynam
*staff2	*staff1	*staff1/2
*Ipiano	*Ipiano	*Ipiano
*clefF4	*clefG2	*clefG2
*k[b-e-a-d-]	*k[b-e-a-d-]	*k[b-e-a-d-]
*A-:	*A-:	*A-:
*M3/4	*M3/4	*M3/4
*MM60	*MM60	*MM60
=1-	=1-	=1-
*^	*	*
!	!	!LO:TX:i:a:t=con expressione	!
2ryy	8AAA- 8AA-L	2E-< 2A-< 2c	p
.	8AAA- 8AA-	.	.
.	8AAA- 8AA-	.	.
.	8AAA- 8AA-	.	.
4D- 4G	8AAA- 8AA-	(16cLL	.
.	.	16B-	.
.	8AAA- 8AA-J	16A-	.
.	.	32cL	.
.	.	32B-JJJ)	.
*v	*v	*	*
=2	=2	=2
8AAA- 8AA-L<	4.C< 4.E-< 4.A-	.
8AAA- 8AA-	.	<
8AAA- 8AA-	.	.
8AAA- 8AA-	8C< 8E-<L (>8A-L	.
8AAA- 8AA-	8D-< 8G< 8B-	.
8AAA- 8AA-J	8E-< 8G-<J 8cJ)	.
=3	=3	=3
*^	*^	*
4ryy	8AAA- 8AA-L	4ryy	4F< 4A-< 4d-	fp
.	8AAA- 8AA-J	.	.	.
(16FLL	8AA-L	(16d-LL	8A-L	.
16En	.	16c	.	.
16F	8AA-	16d-	8A-	.
16CJJ	.	16e-JJ	.	.
16D-LL	8AA-	16fLL	8A-	.
16E-	.	16gn	.	.
16F	8AA-J	16a-	8A-J	.
16D-JJ)	.	16fJJ)	.	.
=4	=4	=4	=4	=4
(4BBn	8AA-L	(8.dnL	4A-	.
.	8AA-J	.	.	.
.	.	32fLL	.	.
.	.	32e-JJJ)	.	.
8C)	8AA-	8e-	8A-	.
4.ryy	8C (8E-L<	(8A- 8e-L	4.ryy	<
.	8BB- 8D- 8E-	8G 8B- 8e-	.	.
.	8AA- 8C 8E-J)	8A-) 8c 8e-J	.	.
*	*	*v	*v	*
=5	=5	=5	=5
8BB- 8E-L	8GGL	4.d-X 4.dd-X	fp
8BB- 8E-	8GG	.	.
8BB- 8E-	8GG	.	.
8BB- 8E-	8GG	8d- 8dd-	.
8C 8E-	8AA-	(16d- 16dd-LL	.
.	.	16c 16cc	.
8C 8E-J	8AA-J	16B- 16b-	.
.	.	16A-) 16a-JJ	.
=6	=6	=6	=6
8E-L	8D-L	(8A- 8a-	.
8E-	8D-	4G) 4g	.
8E-	8D-	.	.
8E-	8D-	8G 8g	.
.	.	.	<
8E-	8C	16A- 16a-LL	.
.	.	(16A-T 16a-	.
8E-J	8CJ	16B- 16b-	.
.	.	16c) 16ccJJ	.
*v	*v	*	*
=7	=7	=7
8GG 8E-L<	(8e- 8ee-	.
8GG 8E-	4d-) 4dd-	f
8GG 8E-	.	.
8GG 8E-	8b- 8dd-	>
8AA- 8E-	16b- (16dd-LL	.
.	16a- 16cc	.
8AA- 8E-J	16g 16bn	.
.	16a- 16ccJJ)	.
=8	=8	=8
*^	*^	*
8E-L	4.EE-	4a- (4cc	8rc	p
8E-	.	.	(8dnL	.
8E-J	.	8g 8b-X)	8e-J)	.
(8B-L	4.ryy	8r	4.ryy	pp
8An	.	4r	.	.
8A-J)	.	.	.	.
*v	*v	*	*	*
*	*v	*v	*
=9	=9	=9
8GL	8r	.
8G 8B-	4b- (4bb-	.
8G 8B-	.	.
8G 8B-	4g 4gg	.
8G 8B-	.	.
8G 8B-J	8e-\ 8ee-\)	.
=10	=10	=10
8F 8A- 8B-L	4e- (>4ee-	<
8F 8A- 8B-	.	.
8F 8A- 8B-	8dn 8ddnL	.
8G 8B-	8en 8een	.
8A- 8B- 8c	8f 8ff	sf >
8G 8B-J	8e- 8ee-J)	]
=11	=11	=11
8F 8A- 8B-L	4e- 4ee-	p
8F 8A- 8B-	.	.
8F 8A- (8B-	8dn (>8ddnL	<
8E- 8G	8c 8cc	.
8Dn 8F	8B- 8b-	.
8C 8E-J)	8An 8anJ)	.
=12	=12	=12
*	*^	*
8BBn 8FL	4.dn 4.a-X	4.ryy	p
.	.	.	<
8BB 8F	.	.	.
8BB 8FJ	.	.	.
8BBBn (8BBL<	(>4a- 4A-<	8d 8fL	.
8CC 8C)	.	8e-	.
8CC 8CJ	8g 8G<)	8e-J	.
*	*v	*v	*
=13	=13	=13
16AAA-\ 16AA-\	16F< 16c 16fLK	fp
16rGG	(8Bn 8bn	.
8AA-' 8C' 8F'L<	.	.
.	8c 8cc	.
8AA-' 8C' 8F'	.	.
.	8en 8een	.
8AA-' 8C' 8F'	.	.
.	8f 8ff	.
8AA-' 8C' 8F'	.	.
.	8bn 8bbn	.
8AA-' 8C' 8F'J	.	.
.	[16cc) [16cccJk	.
=14	=14	=14
8AAn' 8E-' 8F'L<	16cc] (16cccLK]	<
.	8ddn 8dddn	.
8AA' 8E-' 8F'	.	.
.	8ee-X 8eee-X	.
8AA' 8C' 8F'	.	.
.	8ff 8fff	.
8AA' 8C' 8F'	.	.
.	8ee- 8eee-	.
8AA' 8E-' 8F'	.	.
.	8dd 8ddd	.
8AA' 8E-' 8F'J	.	.
.	[16cc [16cccJk	.
=15	=15	=15
8BB-' 8E-' 8G'L	16cc] 16cccLK]	>
.	8bn 8bbn	.
8BB-' 8E-' 8G'	.	.
.	8b- 8bb-	.
8BB-' 8E-' 8G'	.	.
.	8an 8aan	.
8BB-' 8E-' 8G'	.	.
.	8b- 8bb-	.
8BB-' 8Dn' 8A-X'	.	.
.	8cc 8ccc	.
8BB-' 8D' 8A-'J	.	.
.	[16b- [16bb-Jk	.
=16	=16	=16
8E-' 8G'L	16b-] 16bb-LK]	.
.	8a-X 8aa-X	.
8E-' 8G'	.	.
.	8g 8gg	pp
8E-' 8G'	.	.
.	8f 8ff	.
8E-' 8G'	.	.
.	8e- 8ee-	.
8E-' 8F' 8A-'	.	.
.	8dn 8ddn	.
8E-' 8G' 8B-'J	.	.
.	16d- 16dd-Jk)	.
=17	=17	=17
*	*^	*
8AA- 8E- 8A-L	2cc	16cLL	.
.	.	16e-	.
8AA- 8E- 8A-	.	16a-	.
.	.	16e-JJ	.
8AA- 8E- 8A-	.	16cLL	.
.	.	16e-	.
8AA- 8E- 8A-	.	16a-	.
.	.	16e-JJ	.
8AA- 8D- 8E- 8G	(16ccLL	16d-LL	.
.	16b-	16g	.
8AA- 8D- 8E- 8GJ	16a-	16d-	.
.	32ccL	16gJJ	.
.	32b-JJJ)	.	.
=18	=18	=18	=18
8AA- 8C 8E- 8A-L	4.a-	16cLL	.
.	.	16e-	.
8AA- 8C 8E- 8A-	.	16c	.
.	.	16e-JJ	.
8AA- 8C 8E- 8A-	.	16cLL	<
.	.	16e-	.
8AA- 8C 8E- 8A-	(8a-TL	16c	.
.	.	16e-JJ	.
8AA- 8D- 8E- 8G	8b-	16d-LL	.
.	.	16g	.
8AA- 8E- 8G-J	8ccJ)	16e-	.
.	.	16g-JJ	.
=19	=19	=19	=19
*^	*	*	*
8D- 8FL	8AA-L	4dd-	16fLL	fp
.	.	.	16a-	.
8F 8A-J	8AA-	.	16a-	.
.	.	.	16a-JJ	.
.	.	.	.	<
16F 16A-LL	8AA-	4ryy	(16d-' 16a-' 16dd-'LL	.
16En 16A-	.	.	16c' 16a-' 16cc'	.
16F 16A-	8AA-	.	16d-' 16a-' 16dd-'	.
16C 16A-JJ	.	.	16e-' 16a-' 16ee-'JJ	.
16D- 16A-LL	8AA-	4ryy	16f' 16a-' 16ff'LL>	.
16E- 16A-	.	.	16g' 16a-' 16gg'	.
16F 16A-	8AA-J	.	16a-' 16aa-'	.
16D- 16A-JJ	.	.	16f') 16a-' 16ff'JJ	.
=20	=20	=20	=20	=20
4BBn	8AA- 8A-L	(8.ddnL	4dn 4a-	sf
.	8AA- 8A-	.	.	.
.	.	32ffLL	.	.
.	.	32ee-JJJ)	.	.
8C	8AA- 8A-J	8ee-L	8e- 8a-	.
8c (8e-L	4.ryy	(8ee-	(8a-L	<
8B- 8d-X 8e-	.	8ee-	8g 8b-	.
8A- 8c 8e-J)	.	8ee-J)	&()8a-&) 8ccJ	[
*v	*v	*	*	*
*	*v	*v	*
=21	=21	=21
8G 8B- 8e-L	4.dd-X 4.ddd-X	fp
8G 8B- 8e-	.	.
8G 8B- 8e-	.	.
8G 8B- 8e-	8dd- 8ddd-	.
8A- 8c 8e-	16dd- (16ddd-LL	.
.	16cc 16ccc	.
8A- 8c 8e-J	16b- 16bb-	.
.	16a- 16aa-JJ)	.
=22	=22	=22
8d- 8e-L	8a- (8aa-	.
8d- 8e-	4g 4gg)	.
8d- 8e-	.	.
8d- 8e-J	8g 8gg	.
8c 8e-	16a-' 16aa-'LL	<
.	16a-T (16aa-	.
*clefG2	*	*
8g- 8a-	16b- 16bb-	.
.	16cc 16cccJJ)	.
=23	=23	=23
8f 8a-L	16dd- 16ddd-LL	.
.	16dd-T (16ddd-	.
8d- 8a- 8dd-	16ee- 16eee-	.
.	16ff 16fffJJ)	.
8e- 8a- 8ccJ	16ff (16fffLL	.
.	16ee- 16eee-	.
*clefF4	*	*
8E- 8A- (8cL	16ddn 16dddn	.
.	[16ee- [16eee-JJ)	.
8E- 8G 8d-X	16ee-] 16eee-LL]	>
.	16ee- (16eee-	.
8E- 8G 8B- 8d-J)	16dd 16ddd)	.
.	[16ee- [16eee-JJ	.
=24	=24	=24
*^	*	*
8A- 8c	2ryy	16ee-] (16eee-LL]	.
.	.	16a- 16aa-JJ)	.
8AA- 8CL	.	8r	.
(8AA- 8C	.	4r	.
8GG 8BB-J	.	.	.
128r	8FF 8AA-L	8ryy	.
N(128BB-LLLLL	.	.	.
128AA-	.	.	.
128GG	.	.	.
128AA-	.	.	.
128BB-	.	.	.
128C	.	.	.
128Dn	.	.	.
128E-	.	.	.
128F	.	.	.
128G	.	.	.
128A-	.	.	.
128B-	.	.	.
128c	.	.	.
128dn	.	.	.
128e-JJJJJ	.	.	.
8ryy	8EE-) 8GG 8CJ	88fLLLL	.
.	.	88g	.
.	.	88a-	.
.	.	88b-	.
.	.	88cc	.
.	.	88ddn	.
.	.	88ee-	.
.	.	88ff	.
.	.	88gg	.
.	.	88aa-	.
.	.	88ggJJJJN)	.
*v	*v	*	*
=25	=25	=25
2.DDn 2.FF 2.BB-	(64ggLLLL	<
.	64aa-	.
.	64gg	.
.	64aa-	.
.	64gg	.
.	64aa-	.
.	64gg	.
.	64aa-	.
.	64gg	.
.	64aa-	.
.	64gg	.
.	64aa-	.
.	64gg	.
.	64aa-	.
.	64gg	.
.	64aa-JJJJ)	.
!! beamed tremolo for next two beats
.	(64ggLLLL	.
.	64aa-	.
.	64gg	.
.	64aa-	.
.	64gg	.
.	64aa-	.
.	64gg	.
.	64aa-	.
.	64gg	.
.	64aa-	.
.	64gg	.
.	64aa-	.
.	64gg	.
.	64aa-	.
.	64gg	.
.	64aa-JJJJ)	.
.	(64ggLLLL	.
.	64aa-	.
.	64gg	.
.	64aa-	.
.	64gg	.
.	64aa-	.
.	64gg	.
.	64aa-	.
.	64gg	.
.	64aa-	.
.	64gg	.
.	64aa-	.
.	64gg	.
.	64aa-	.
.	64gg	.
.	64aa-JJJJ)	.
=26	=26	=26
.	(8qgg	.
2.Dn; 2.F; 2.B-;	4aa-T;)	sfp
*	*rscale:2	*
*	*cue	*
.	32ggL<	.
.	32aa-	.
.	32bb-	.
.	32aa-	.
.	32gg	.
.	32ff	.
.	32een	.
.	32ff	.
.	32gg	.
.	32ff	.
.	32ee-	.
.	32ddn	.
.	32cc#	.
.	32dd	.
.	32ee-	.
.	32dd	.
8ryy	32ccn	.
.	32b-	.
.	32an	.
.	32b-	.
16ryy	32bn	.
.	32cc	.
32ryy	32gJ	.
*	*rscale:1	*
4ryy	(4b-'/	.
4ryy	4an')	.
*	*Xcue	*
4ryy	4a-';	pp
!! attacca
=||	=||	=||
*-	*-	*-
!!!RDF**kern: > = above
!!!RDF**kern: < = below
!!!RDF**kern: N = linked
!!!ENC: Craig Stuart Sapp
!!!END: 2008/11/04
!!!EED: Craig Stuart Sapp
!!!EEV: 2018/07/02
